MonoIcons/scalable/status/weather-few-clouds-night-symbolic.svg

<?xml version="1.0" encoding="UTF-8"?>
<svg height="16px" viewBox="0 0 16 16" width="16px" xmlns="http://www.w3.org/2000/svg">
    <path d="m 6.820312 1.105469 c -3.296874 0.566406 -5.824218 3.441406 -5.824218 6.894531 c 0 2.328125 1.15625 4.394531 2.917968 5.667969 c 0.3125 -0.8125 1.0625 -1.394531 1.941407 -1.636719 c 0.140625 -1.046875 0.707031 -1.960938 1.515625 -2.554688 c -0.867188 -1.359374 -1.375 -2.964843 -1.375 -4.691406 c 0 -1.3125 0.300781 -2.554687 0.824218 -3.679687 z m 2.679688 8.894531 c -1.378906 0 -2.5 1.121094 -2.5 2.5 c 0 0.21875 0.042969 0.421875 0.09375 0.625 c -0.179688 -0.074219 -0.386719 -0.125 -0.59375 -0.125 c -0.828125 0 -1.5 0.671875 -1.5 1.5 s 0.671875 1.5 1.5 1.5 h 8 c 0.828125 0 1.5 -0.671875 1.5 -1.5 s -0.671875 -1.5 -1.5 -1.5 c 0 -1.105469 -0.894531 -2 -2 -2 c -0.316406 0 -0.609375 0.089844 -0.875 0.21875 c -0.4375 -0.726562 -1.214844 -1.21875 -2.125 -1.21875 z m 0 0" fill="#2e3436"/>
</svg>

<svg width="16" height="16" viewBox="0 0 16 16" fill="none" xmlns="http://www.w3.org/2000/svg">
<g clip-path="url(#clip0_231_1210)">
<path d="M6.82031 1.10547C3.52344 1.67187 0.996094 4.54688 0.996094 8C0.996094 10.3281 2.15234 12.3945 3.91406 13.668C4.22656 12.8555 4.97656 12.2734 5.85547 12.0313C5.99609 10.9844 6.5625 10.0703 7.37109 9.47656C6.50391 8.11719 5.99609 6.51172 5.99609 4.78516C5.99609 3.47266 6.29688 2.23047 6.82031 1.10547V1.10547ZM9.5 10C8.12109 10 7 11.1211 7 12.5C7 12.7188 7.04297 12.9219 7.09375 13.125C6.91406 13.0508 6.70703 13 6.5 13C5.67188 13 5 13.6719 5 14.5C5 15.3281 5.67188 16 6.5 16H14.5C15.3281 16 16 15.3281 16 14.5C16 13.6719 15.3281 13 14.5 13C14.5 11.8945 13.6055 11 12.5 11C12.1836 11 11.8906 11.0898 11.625 11.2188C11.1875 10.4922 10.4102 10 9.5 10Z" fill="#2E3436"/>
</g>
<defs>
<clipPath id="clip0_231_1210">
<rect width="16" height="16" fill="white"/>
</clipPath>
</defs>
</svg>
